Trush.photo/img/camera.svg

<svg width="191" height="356" viewBox="0 0 191 356" fill="none" xmlns="http://www.w3.org/2000/svg">
<ellipse cx="95.5" cy="340.4" rx="95.5" ry="15.5" fill="#E8E7E6"/>
<path d="M156.912 342.209C158.544 341.639 159.465 339.912 159.031 338.239L99.3001 108.4H93.1001L33.2945 337.44C32.888 338.997 33.6096 340.629 35.0349 341.375C37.0091 342.409 39.4314 341.332 39.9861 339.174L93.1001 132.5V340.3C93.1001 342.012 94.488 343.4 96.2001 343.4C97.9122 343.4 99.3001 342.012 99.3001 340.3V132.4L152.601 339.9C153.085 341.783 155.076 342.85 156.912 342.209Z" fill="#4C4944"/>
<path d="M102.8 75.7002H89.4001V130.5H102.8V75.7002Z" fill="#4C4944"/>
<path d="M104.9 128.5C104.9 129.8 103.8 130.9 102.5 130.9H89.6002C88.3002 130.9 87.2002 129.8 87.2002 128.5V121.3C87.2002 120 88.3002 118.9 89.6002 118.9H102.5C103.8 118.9 104.9 120 104.9 121.3V128.5Z" fill="#4C4944"/>
<path d="M107 72.8999H85V80.8999H107V72.8999Z" fill="#4C4944"/>
<path d="M146.2 65.5001C146.2 69.8001 142.7 73.3001 138.4 73.3001H53.6001C49.3001 73.3001 45.8 69.8001 45.8 65.5001V23.9001C45.8 19.6001 49.3001 16.1001 53.6001 16.1001H138.4C142.7 16.1001 146.2 19.6001 146.2 23.9001V65.5001Z" fill="#4C4944"/>
<path d="M110.7 0H95.8H80.9L70.5 17.2H121.7L110.7 0ZM107.3 12.7H84.7V4.69998H107.3V12.7Z" fill="#4C4944"/>
<path d="M112 23.8999H56V64.8999H112V23.8999Z" fill="white"/>
<path d="M129.7 64.5002C135.168 64.5002 139.6 60.0678 139.6 54.6002C139.6 49.1326 135.168 44.7002 129.7 44.7002C124.232 44.7002 119.8 49.1326 119.8 54.6002C119.8 60.0678 124.232 64.5002 129.7 64.5002Z" fill="#615D56"/>
<path d="M129.7 62.2999C133.953 62.2999 137.4 58.8525 137.4 54.5999C137.4 50.3473 133.953 46.8999 129.7 46.8999C125.447 46.8999 122 50.3473 122 54.5999C122 58.8525 125.447 62.2999 129.7 62.2999Z" fill="#4C4944"/>
<path d="M129 27.8999C129 28.4999 128.6 28.8999 128 28.8999H122C121.4 28.8999 121 28.4999 121 27.8999V24.8999C121 24.2999 121.4 23.8999 122 23.8999H128C128.6 23.8999 129 24.2999 129 24.8999V27.8999Z" fill="#615D56"/>
<path d="M129 35.8999C129 36.4999 128.6 36.8999 128 36.8999H122C121.4 36.8999 121 36.4999 121 35.8999V32.8999C121 32.2999 121.4 31.8999 122 31.8999H128C128.6 31.8999 129 32.2999 129 32.8999V35.8999Z" fill="#615D56"/>
<path d="M140 27.8999C140 28.4999 139.6 28.8999 139 28.8999H133C132.4 28.8999 132 28.4999 132 27.8999V24.8999C132 24.2999 132.4 23.8999 133 23.8999H139C139.6 23.8999 140 24.2999 140 24.8999V27.8999Z" fill="#615D56"/>
<path d="M140 35.8999C140 36.4999 139.6 36.8999 139 36.8999H133C132.4 36.8999 132 36.4999 132 35.8999V32.8999C132 32.2999 132.4 31.8999 133 31.8999H139C139.6 31.8999 140 32.2999 140 32.8999V35.8999Z" fill="#615D56"/>
<path d="M87.1615 54.6502C87.0375 54.6502 86.9163 54.6021 86.8259 54.5136L81.3584 49.1788C81.1815 49.0057 81.1642 48.7269 81.319 48.5336L92.7213 34.3312C92.8655 34.1514 93.1165 34.0995 93.3204 34.2071C93.5242 34.3148 93.6233 34.5514 93.556 34.7726L87.6211 54.3107C87.5721 54.4713 87.4432 54.5954 87.2807 54.6367C87.2413 54.6454 87.2019 54.6502 87.1615 54.6502ZM82.3421 48.7961L86.9317 53.2742L91.9126 36.8746L82.3421 48.7961Z" fill="#F16D64"/>
<path d="M77.8709 46.7592C77.8209 46.7592 77.7719 46.7516 77.7238 46.7362L70.8332 44.513C70.6418 44.4515 70.5091 44.2774 70.5005 44.0774C70.4918 43.8774 70.6081 43.6918 70.7918 43.613L92.908 34.1886C93.1311 34.0934 93.3897 34.179 93.5118 34.3886C93.634 34.5982 93.5811 34.8656 93.3888 35.0127L78.1632 46.6602C78.0776 46.7256 77.9748 46.7592 77.8709 46.7592ZM72.3524 43.9938L77.7776 45.7438L89.7665 36.5723L72.3524 43.9938Z" fill="#F16D64"/>
<path d="M77.8009 53.6057C77.747 53.6057 77.6922 53.5961 77.6383 53.5778C77.447 53.5095 77.3201 53.3278 77.3201 53.1249V46.2785C77.3201 46.1285 77.3903 45.9871 77.5085 45.8968L92.7341 34.2502C92.9283 34.1021 93.2024 34.1223 93.3726 34.2983C93.5418 34.4742 93.5533 34.7492 93.3976 34.9377L78.172 53.4307C78.0787 53.5432 77.9412 53.6057 77.8009 53.6057ZM78.2816 46.516V51.7845L89.9974 37.5542L78.2816 46.516Z" fill="#F16D64"/>
</svg>

<svg width="191" height="356" fill="none" xmlns="http://www.w3.org/2000/svg"><ellipse cx="95.5" cy="340.4" rx="95.5" ry="15.5" fill="#E8E7E6"/><path d="M156.912 342.209a3.321 3.321 0 0 0 2.119-3.97L99.301 108.4h-6.2L33.294 337.44a3.456 3.456 0 1 0 6.691 1.734L93.1 132.5v207.8a3.1 3.1 0 0 0 6.2 0V132.4l53.301 207.5a3.321 3.321 0 0 0 4.311 2.309z" fill="#4C4944"/><path d="M102.8 75.7H89.4v54.8h13.4V75.7z" fill="#4C4944"/><path d="M104.9 128.5c0 1.3-1.1 2.4-2.4 2.4H89.6c-1.3 0-2.4-1.1-2.4-2.4v-7.2c0-1.3 1.1-2.4 2.4-2.4h12.9c1.3 0 2.4 1.1 2.4 2.4v7.2zm2.1-55.6H85v8h22v-8z" fill="#4C4944"/><path d="M146.2 65.5c0 4.3-3.5 7.8-7.8 7.8H53.6c-4.3 0-7.8-3.5-7.8-7.8V23.9c0-4.3 3.5-7.8 7.8-7.8h84.8c4.3 0 7.8 3.5 7.8 7.8v41.6z" fill="#4C4944"/><path d="M110.7 0H80.9L70.5 17.2h51.2L110.7 0zm-3.4 12.7H84.7v-8h22.6v8z" fill="#4C4944"/><path d="M112 23.9H56v41h56v-41z" fill="#fff"/><path d="M129.7 64.5c5.468 0 9.9-4.432 9.9-9.9 0-5.467-4.432-9.9-9.9-9.9s-9.9 4.433-9.9 9.9c0 5.468 4.432 9.9 9.9 9.9z" fill="#615D56"/><path d="M129.7 62.3a7.7 7.7 0 1 0 0-15.4 7.7 7.7 0 1 0 0 15.4z" fill="#4C4944"/><path d="M129 27.9c0 .6-.4 1-1 1h-6c-.6 0-1-.4-1-1v-3c0-.6.4-1 1-1h6c.6 0 1 .4 1 1v3zm0 8c0 .6-.4 1-1 1h-6c-.6 0-1-.4-1-1v-3c0-.6.4-1 1-1h6c.6 0 1 .4 1 1v3zm11-8c0 .6-.4 1-1 1h-6c-.6 0-1-.4-1-1v-3c0-.6.4-1 1-1h6c.6 0 1 .4 1 1v3zm0 8c0 .6-.4 1-1 1h-6c-.6 0-1-.4-1-1v-3c0-.6.4-1 1-1h6c.6 0 1 .4 1 1v3z" fill="#615D56"/><path d="M87.162 54.65a.48.48 0 0 1-.336-.136l-5.468-5.335a.481.481 0 0 1-.039-.645L92.721 34.33a.48.48 0 0 1 .835.442L87.621 54.31a.48.48 0 0 1-.46.34zm-4.82-5.854l4.59 4.478 4.98-16.4-9.57 11.922z" fill="#F16D64"/><path d="M77.87 46.76a.48.48 0 0 1-.146-.024l-6.89-2.223a.48.48 0 0 1-.042-.9l22.116-9.424a.48.48 0 0 1 .48.824L78.164 46.66a.48.48 0 0 1-.292.1zm-5.518-2.766l5.426 1.75 11.988-9.172-17.414 7.422z" fill="#F16D64"/><path d="M77.8 53.606a.48.48 0 0 1-.48-.48v-6.848c0-.15.07-.29.189-.381L92.733 34.25a.481.481 0 0 1 .664.688L78.172 53.43a.483.483 0 0 1-.371.175zm.482-7.09v5.269l11.715-14.23-11.715 8.961z" fill="#F16D64"/></svg>
